resources/haticons/SVG/view_day.svg

<!-- Generated by IcoMoon.io -->
<svg version="1.1" xmlns="http://www.w3.org/2000/svg" width="24" height="24" viewBox="0 0 24 24">
<title>view_day</title>
<path d="M2.016 3h18.984v3h-18.984v-3zM20.016 8.016q0.422 0 0.703 0.281t0.281 0.703v6q0 0.422-0.281 0.703t-0.703 0.281h-17.016q-0.422 0-0.703-0.281t-0.281-0.703v-6q0-0.422 0.281-0.703t0.703-0.281h17.016zM2.016 21v-3h18.984v3h-18.984z"></path>
</svg>

<svg xmlns="http://www.w3.org/2000/svg" width="24" height="24"><path d="M2.016 3H21v3H2.016V3zm18 5.016q.422 0 .703.281T21 9v6q0 .422-.281.703t-.703.281H3q-.422 0-.703-.281T2.016 15V9q0-.422.281-.703T3 8.016h17.016zM2.016 21v-3H21v3H2.016z"/></svg>
